X: 17
M: 2/4
L: 1/16
K: G
V: 1
^c2BA d2fd | ^c2BA B^cdA | B^cdG F2E2 | D4 |][K:Gm]
|: "Mineur"\
d4 e2dc | d4 {e}d2cB | A2G2 ^FGAF | D4 B2c2 |\
d4 e2dc | d4 {e}d2cB | A2G2A2^F2 | HG4 :|
f4 edcB | A2F2 Bcde | fgab d2c2 | B4B2d2 | f4 edcB |\
V: 2 clef=bass   middle=d
g2g2 |\
c4d2D2 | E4B4 | c2B2A2G2 | d4g2g2 | c4d2D2 |
E4B4 | c4d2D2 | HG4 :| G2g2 | f2d2f2g2 | a4d2d'2 | g2^g2a4 |
|: "Mineur"\
g2A2 |\
b4c'4 | b4g4 | c'2^c'2d'4 | d4g2a2 | b4c'4 |
b4g4 | c2e2d2D2 | HG4 :| B2b2 | a2f2g2e2 | f4d4 | B4f2F2 |


